www/img/haxe-logo-vertical.svg

<svg height="314" width="230" xmlns="http://www.w3.org/2000/svg"><g transform="matrix(.1838103125 0 0 -.1838103125 0 313.99999)"><path d="m625.645 1548.82-469.239-469.23 469.239-469.219 469.215 469.219z" fill="#f68712"/><path d="m0 1705.23 625.645-156.41-469.239-469.23z" fill="#fab20b"/><path d="m1251.29 1705.23-156.43-625.64-469.215 469.23z" fill="#f47216"/><path d="m1251.29 453.961-625.645 156.41 469.215 469.219z" fill="#f25c19"/><path d="m0 453.961 156.406 625.629 469.239-469.219z" fill="#f89c0e"/><path d="m625.645 1548.82-625.645 156.41h312.812z" fill="#fbc707"/><path d="m625.645 1548.82 625.645 156.41h-312.833z" fill="#fbc707"/><path d="m625.645 610.371 625.645-156.41h-312.833z" fill="#f68712"/><path d="m625.645 610.371-625.645-156.41h312.812z" fill="#f25c19"/><path d="m156.406 1079.59-156.406-625.629v312.812z" fill="#fff200"/><path d="m156.406 1079.59-156.406 625.64v-312.81z" fill="#fff200"/><path d="m1094.86 1079.59 156.43 625.64v-312.81z" fill="#f1471d"/><path d="m1094.86 1079.59 156.43-625.629v312.812z" fill="#f1471d"/><g fill="#4f4c4c"><path d="m0 316.32h97.4805v-109.84h91.2495v109.84h97.481v-316.32h-97.481v125.371h-91.2495v-125.371h-97.4805z"/><path d="m500.703 113.02-28.398 97.41h-.879l-30.547-97.41zm-76.621 203.3h95.195l115.215-316.32h-101.015l-13.282 45.1719h-100.586l-14.16-45.1719h-97.949z"/><path d="m739.98 168.352-104.14 147.968h114.316l47.832-85.929 46.992 85.929h108.086l-101.425-148.859 112.929-167.461h-117.382l-54.043 94.3711-55.821-94.3711h-111.66z"/><path d="m984.551 316.32h261.839v-81.031h-164.36v-39.449h149.3v-75.36h-149.3v-39.4097h169.26v-81.0703h-266.739z"/></g></g></svg>

<?xml version="1.0" encoding="UTF-8" standalone="no"?>
<!-- Created with Inkscape (http://www.inkscape.org/) -->

<svg
   xmlns:dc="http://purl.org/dc/elements/1.1/"
   xmlns:cc="http://creativecommons.org/ns#"
   xmlns:rdf="http://www.w3.org/1999/02/22-rdf-syntax-ns#"
   xmlns:svg="http://www.w3.org/2000/svg"
   xmlns="http://www.w3.org/2000/svg"
   xmlns:sodipodi="http://sodipodi.sourceforge.net/DTD/sodipodi-0.dtd"
   xmlns:inkscape="http://www.inkscape.org/namespaces/inkscape"
   id="svg2"
   version="1.1"
   inkscape:version="0.48.3.1 r9886"
   width="230"
   height="314"
   xml:space="preserve"
   sodipodi:docname="haxe-logo-vertical.svg"><metadata
     id="metadata8"><rdf:RDF><cc:Work
         rdf:about=""><dc:format>image/svg+xml</dc:format><dc:type
           rdf:resource="http://purl.org/dc/dcmitype/StillImage" /><dc:title /></cc:Work></rdf:RDF></metadata><defs
     id="defs6" /><sodipodi:namedview
     pagecolor="#ffffff"
     bordercolor="#666666"
     borderopacity="1"
     objecttolerance="10"
     gridtolerance="10"
     guidetolerance="10"
     inkscape:pageopacity="0"
     inkscape:pageshadow="2"
     inkscape:window-width="1317"
     inkscape:window-height="744"
     id="namedview4"
     showgrid="false"
     inkscape:zoom="1.5658194"
     inkscape:cx="203.86004"
     inkscape:cy="57.713244"
     inkscape:window-x="207"
     inkscape:window-y="1074"
     inkscape:window-maximized="1"
     inkscape:current-layer="g10"
     fit-margin-top="0"
     fit-margin-left="0"
     fit-margin-right="0"
     fit-margin-bottom="0" /><g
     id="g10"
     inkscape:groupmode="layer"
     inkscape:label="ink_ext_XXXXXX"
     transform="matrix(1.25,0,0,-1.25,0,313.99999)"><g
       id="g12"
       transform="scale(0.14704825,0.14704825)"><path
         d="M 625.645,1548.82 156.406,1079.59 625.645,610.371 1094.86,1079.59 625.645,1548.82"
         style="fill:#f68712;fill-opacity:1;fill-rule:nonzero;stroke:none"
         id="path14"
         inkscape:connector-curvature="0" /><path
         d="M 0,1705.23 625.645,1548.82 156.406,1079.59 0,1705.23"
         style="fill:#fab20b;fill-opacity:1;fill-rule:nonzero;stroke:none"
         id="path16"
         inkscape:connector-curvature="0" /><path
         d="m 1251.29,1705.23 -156.43,-625.64 -469.215,469.23 625.645,156.41"
         style="fill:#f47216;fill-opacity:1;fill-rule:nonzero;stroke:none"
         id="path18"
         inkscape:connector-curvature="0" /><path
         d="M 1251.29,453.961 625.645,610.371 1094.86,1079.59 1251.29,453.961"
         style="fill:#f25c19;fill-opacity:1;fill-rule:nonzero;stroke:none"
         id="path20"
         inkscape:connector-curvature="0" /><path
         d="M 0,453.961 156.406,1079.59 625.645,610.371 0,453.961"
         style="fill:#f89c0e;fill-opacity:1;fill-rule:nonzero;stroke:none"
         id="path22"
         inkscape:connector-curvature="0" /><path
         d="M 625.645,1548.82 0,1705.23 l 312.812,0 312.833,-156.41"
         style="fill:#fbc707;fill-opacity:1;fill-rule:nonzero;stroke:none"
         id="path24"
         inkscape:connector-curvature="0" /><path
         d="m 625.645,1548.82 625.645,156.41 -312.833,0 -312.812,-156.41"
         style="fill:#fbc707;fill-opacity:1;fill-rule:nonzero;stroke:none"
         id="path26"
         inkscape:connector-curvature="0" /><path
         d="m 625.645,610.371 625.645,-156.41 -312.833,0 -312.812,156.41"
         style="fill:#f68712;fill-opacity:1;fill-rule:nonzero;stroke:none"
         id="path28"
         inkscape:connector-curvature="0" /><path
         d="M 625.645,610.371 0,453.961 l 312.812,0 312.833,156.41"
         style="fill:#f25c19;fill-opacity:1;fill-rule:nonzero;stroke:none"
         id="path30"
         inkscape:connector-curvature="0" /><path
         d="M 156.406,1079.59 0,453.961 0,766.773 156.406,1079.59"
         style="fill:#fff200;fill-opacity:1;fill-rule:nonzero;stroke:none"
         id="path32"
         inkscape:connector-curvature="0" /><path
         d="M 156.406,1079.59 0,1705.23 0,1392.42 156.406,1079.59"
         style="fill:#fff200;fill-opacity:1;fill-rule:nonzero;stroke:none"
         id="path34"
         inkscape:connector-curvature="0" /><path
         d="m 1094.86,1079.59 156.43,625.64 0,-312.81 -156.43,-312.83"
         style="fill:#f1471d;fill-opacity:1;fill-rule:nonzero;stroke:none"
         id="path36"
         inkscape:connector-curvature="0" /><path
         d="m 1094.86,1079.59 156.43,-625.629 0,312.812 -156.43,312.817"
         style="fill:#f1471d;fill-opacity:1;fill-rule:nonzero;stroke:none"
         id="path38"
         inkscape:connector-curvature="0" /><path
         d="m 0,316.32 97.4805,0 0,-109.84 91.2495,0 0,109.84 97.481,0 0,-316.32 -97.481,0 0,125.371 -91.2495,0 L 97.4805,0 0,0 0,316.32"
         style="fill:#4f4c4c;fill-opacity:1;fill-rule:nonzero;stroke:none"
         id="path40"
         inkscape:connector-curvature="0" /><path
         d="m 500.703,113.02 -28.398,97.41 -0.879,0 -30.547,-97.41 59.824,0 z m -76.621,203.3 95.195,0 L 634.492,0 533.477,0 l -13.282,45.1719 -100.586,0 L 405.449,0 307.5,0 424.082,316.32"
         style="fill:#4f4c4c;fill-opacity:1;fill-rule:nonzero;stroke:none"
         id="path42"
         inkscape:connector-curvature="0" /><path
         d="m 739.98,168.352 -104.14,147.968 114.316,0 47.832,-85.929 46.992,85.929 108.086,0 L 851.641,167.461 964.57,0 847.188,0 793.145,94.3711 737.324,0 625.664,0 739.98,168.352"
         style="fill:#4f4c4c;fill-opacity:1;fill-rule:nonzero;stroke:none"
         id="path44"
         inkscape:connector-curvature="0" /><path
         d="m 984.551,316.32 261.839,0 0,-81.031 -164.36,0 0,-39.449 149.3,0 0,-75.36 -149.3,0 0,-39.4097 169.26,0 0,-81.0703 -266.739,0 0,316.32"
         style="fill:#4f4c4c;fill-opacity:1;fill-rule:nonzero;stroke:none"
         id="path46"
         inkscape:connector-curvature="0" /></g></g></svg>
